client/public/assets/icons/standard/contract_line_item.svg

<?xml version="1.0"?><svg xmlns="http://www.w3.org/2000/svg" width="100" height="100" viewBox="0 0 100 100"><g fill="#fff"><path d="m63 36h10.6c0.8 0 1.4-0.6 1.4-1.4 0-0.4-0.1-0.7-0.4-1l-13.2-13.2c-0.3-0.3-0.6-0.4-1-0.4-0.8 0-1.4 0.6-1.4 1.4v10.6c0 2.2 1.8 4 4 4z m10 6h-14c-3.3 0-6-2.7-6-6v-14c0-1.1-0.9-2-2-2h-20c-3.3 0-6 2.7-6 6v48c0 3.3 2.7 6 6 6h38c3.3 0 6-2.7 6-6v-30c0-1.1-0.9-2-2-2z m-38.4 26.1c-1.7 0-3.1-1.4-3.1-3.1 0-1.7 1.4-3.1 3.1-3.1 1.7 0 3.1 1.4 3.1 3.1 0 1.7-1.4 3.1-3.1 3.1z m0-12c-1.7 0-3.1-1.4-3.1-3.1 0-1.7 1.4-3.1 3.1-3.1 1.7 0 3.1 1.4 3.1 3.1 0 1.8-1.4 3.1-3.1 3.1z m4.9-15.9l-4.4 2.3c-0.3 0.2-0.7-0.1-0.6-0.4l0.8-4.9c0-0.1 0-0.3-0.1-0.4l-3.6-3.5c-0.1-0.2 0.1-0.6 0.4-0.7l4.9-0.7c0.1 0 0.3-0.1 0.3-0.2l2.2-4.5c0.2-0.3 0.6-0.3 0.8 0l2.2 4.5c0.1 0.1 0.2 0.2 0.3 0.2l4.9 0.7c0.3 0.1 0.5 0.5 0.2 0.7l-3.6 3.5c-0.1 0.1-0.1 0.2-0.1 0.4l0.8 4.9c0.1 0.3-0.3 0.6-0.6 0.4l-4.4-2.3c-0.1-0.1-0.3-0.1-0.4 0z m27.5 25.8c0 1.1-0.9 2-2 2h-20.3c-1.1 0-2-0.9-2-2v-2c0-1.1 0.9-2 2-2h20.3c1.1 0 2 0.9 2 2v2z m0-12c0 1.1-0.9 2-2 2h-20.3c-1.1 0-2-0.9-2-2v-2c0-1.1 0.9-2 2-2h20.3c1.1 0 2 0.9 2 2v2z"></path></g></svg>

<?xml version="1.0" encoding="utf-8"?>
<!-- Generator: Adobe Illustrator 21.0.2, SVG Export Plug-In . SVG Version: 6.00 Build 0)  -->
<svg version="1.1" id="Layer_1" xmlns="http://www.w3.org/2000/svg" xmlns:xlink="http://www.w3.org/1999/xlink" x="0px" y="0px"
	 width="100px" height="100px" viewBox="0 0 100 100" enable-background="new 0 0 100 100" xml:space="preserve">
<g>
	<path fill="#FFFFFF" d="M63,36h10.6c0.8,0,1.4-0.6,1.4-1.4c0-0.4-0.1-0.7-0.4-1L61.4,20.4c-0.3-0.3-0.6-0.4-1-0.4
		c-0.8,0-1.4,0.6-1.4,1.4V32C59,34.2,60.8,36,63,36z"/>
	<path fill="#FFFFFF" d="M73,42H59c-3.3,0-6-2.7-6-6V22c0-1.1-0.9-2-2-2H31c-3.3,0-6,2.7-6,6v48c0,3.3,2.7,6,6,6h38c3.3,0,6-2.7,6-6
		V44C75,42.9,74.1,42,73,42z M34.6,68.1c-1.7,0-3.1-1.4-3.1-3.1c0-1.7,1.4-3.1,3.1-3.1c1.7,0,3.1,1.4,3.1,3.1
		C37.7,66.7,36.3,68.1,34.6,68.1z M34.6,56.1c-1.7,0-3.1-1.4-3.1-3.1c0-1.7,1.4-3.1,3.1-3.1c1.7,0,3.1,1.4,3.1,3.1
		C37.7,54.8,36.3,56.1,34.6,56.1z M39.5,40.2l-4.4,2.3c-0.3,0.2-0.7-0.1-0.6-0.4l0.8-4.9c0-0.1,0-0.3-0.1-0.4l-3.6-3.5
		c-0.1-0.2,0.1-0.6,0.4-0.7l4.9-0.7c0.1,0,0.3-0.1,0.3-0.2l2.2-4.5c0.2-0.3,0.6-0.3,0.8,0l2.2,4.5c0.1,0.1,0.2,0.2,0.3,0.2l4.9,0.7
		c0.3,0.1,0.5,0.5,0.2,0.7l-3.6,3.5c-0.1,0.1-0.1,0.2-0.1,0.4l0.8,4.9c0.1,0.3-0.3,0.6-0.6,0.4l-4.4-2.3
		C39.8,40.1,39.6,40.1,39.5,40.2z M67,66c0,1.1-0.9,2-2,2H44.7c-1.1,0-2-0.9-2-2v-2c0-1.1,0.9-2,2-2H65c1.1,0,2,0.9,2,2V66z M67,54
		c0,1.1-0.9,2-2,2H44.7c-1.1,0-2-0.9-2-2v-2c0-1.1,0.9-2,2-2H65c1.1,0,2,0.9,2,2V54z"/>
</g>
</svg>
